src/static/logos/sysdig.svg

<?xml version="1.0" encoding="UTF-8" standalone="no"?>
<svg width="256px" height="256px" viewBox="0 0 256 256" version="1.1" xmlns="http://www.w3.org/2000/svg" preserveAspectRatio="xMidYMid">
    <g>
        <path d="M129.05802,0.00453586476 C58.3726533,-0.584403689 0.589269641,56.25247 0.00453679766,126.942043 C-0.243659157,156.679284 9.7052126,184.102834 26.5362637,205.969318 C33.1197666,199.490983 37.6630146,195.023456 38.4160159,194.287281 C41.8024183,190.96398 50.7500928,191.0397 50.7500928,191.0397 C50.7500928,191.0397 59.5337056,182.407529 68.5571009,173.518749 C77.5847029,164.634175 62.2933081,149.094584 62.2933081,149.094584 L40.9442492,127.392161 C124.430638,45.243507 185.411122,70.6772824 185.411122,70.6772824 C185.411122,70.6772824 209.839493,132.070024 126.357311,214.214472 L105.004046,192.507843 C105.004046,192.507843 89.7168577,176.972458 80.6934624,185.844412 C71.657447,194.737399 62.8780409,203.369571 62.8780409,203.369571 C62.8780409,203.369571 62.819147,212.321452 59.4243311,215.653167 C58.6671231,216.397755 54.0902214,220.903142 47.456238,227.431958 C69.1839009,245.058078 96.7841324,255.751537 126.942044,255.999733 C197.635824,256.588673 255.410795,199.756006 255.995527,129.062226 C256.58026,58.3684457 199.756007,0.589268708 129.05802,0.00453586476 L129.05802,0.00453586476 Z" fill="#EE5A4C"></path>
    </g>
</svg>

<svg width="256" height="256" xmlns="http://www.w3.org/2000/svg" preserveAspectRatio="xMidYMid"><path d="M129.058.005C58.373-.585.589 56.252.005 126.942c-.249 29.737 9.7 57.16 26.531 79.027 6.584-6.478 11.127-10.946 11.88-11.682 3.386-3.323 12.334-3.247 12.334-3.247s8.784-8.632 17.807-17.521c9.028-8.885-6.264-24.424-6.264-24.424l-21.349-21.703c83.487-82.148 144.467-56.715 144.467-56.715s24.428 61.393-59.054 143.537l-21.353-21.706s-15.287-15.536-24.31-6.664c-9.037 8.893-17.816 17.526-17.816 17.526s-.059 8.951-3.454 12.283l-11.968 11.779c21.728 17.626 49.328 28.32 79.486 28.568 70.694.589 128.469-56.244 129.054-126.938C256.58 58.368 199.756.59 129.058.005z" fill="#EE5A4C"/></svg>
